X: 6623
T: Cavers Of Kirkcudbright
R: jig
M: 6/8
K: Dminor
E|:Fcc cAc|z dc AGF|Fcc cAc|zfe dcA|
Fcc cAc|zdc AGF|zBA GFD|zBA GFD:|
|:dBB ecf|zcc dcA|dBB ecf|zga gfe|
dBB ecf|zcc dcA|zBA GFD|zBA GFD:|

